public/img/old-svg/luggage.svg

<svg width="97" height="97" viewBox="0 0 97 97" fill="none" xmlns="http://www.w3.org/2000/svg">
<g opacity="0.5">
<path d="M67.8999 25.8667H58.1999V8.08333H61.4333C62.3261 8.08333 63.0499 7.35946 63.0499 6.46667V1.61667C63.0499 0.723869 62.3261 0 61.4333 0H35.5666C34.6738 0 33.9499 0.723869 33.9499 1.61667V6.46667C33.9499 7.35946 34.6738 8.08333 35.5666 8.08333H38.7999V25.8667H29.0999C24.6375 25.8722 21.0221 29.4876 21.0166 33.95V84.0667C21.0221 88.5291 24.6375 92.1445 29.0999 92.15V95.3833C29.0999 96.2761 29.8238 97 30.7166 97H37.1833C38.0761 97 38.7999 96.2761 38.7999 95.3833V92.15H58.1999V95.3833C58.1999 96.2761 58.9238 97 59.8166 97H66.2833C67.1761 97 67.8999 96.2761 67.8999 95.3833V92.15C72.3624 92.1445 75.9777 88.5291 75.9833 84.0667V33.95C75.9777 29.4876 72.3624 25.8722 67.8999 25.8667ZM37.1833 3.23333H59.8166V4.85H37.1833V3.23333ZM42.0333 8.08333H54.9666V25.8667H42.0333V8.08333ZM35.5666 93.7667H32.3333V92.15H35.5666V93.7667ZM64.6666 93.7667H61.4333V92.15H64.6666V93.7667ZM72.7499 84.0667C72.7499 86.7451 70.5783 88.9167 67.8999 88.9167H29.0999C26.4215 88.9167 24.2499 86.7451 24.2499 84.0667V33.95C24.2499 31.2716 26.4215 29.1 29.0999 29.1H67.8999C70.5783 29.1 72.7499 31.2716 72.7499 33.95V84.0667Z" fill="white"/>
<path d="M48.5 32.3335C47.6072 32.3335 46.8833 33.0574 46.8833 33.9502V84.0668C46.8833 84.9596 47.6072 85.6835 48.5 85.6835C49.3928 85.6835 50.1166 84.9596 50.1166 84.0668V33.9502C50.1166 33.0574 49.3928 32.3335 48.5 32.3335Z" fill="white"/>
<path d="M61.4336 35.5669C60.5408 35.5669 59.8169 36.2908 59.8169 37.1836V80.8336C59.8169 81.7264 60.5408 82.4502 61.4336 82.4502C62.3264 82.4502 63.0502 81.7264 63.0502 80.8336V37.1836C63.0502 36.2908 62.3264 35.5669 61.4336 35.5669Z" fill="white"/>
<path d="M35.5669 35.5669C34.6741 35.5669 33.9502 36.2908 33.9502 37.1836V80.8336C33.9502 81.7264 34.6741 82.4502 35.5669 82.4502C36.4597 82.4502 37.1835 81.7264 37.1835 80.8336V37.1836C37.1835 36.2908 36.4597 35.5669 35.5669 35.5669Z" fill="white"/>
</g>
</svg>

<svg width="97" height="97" viewBox="0 0 97 97" fill="none" xmlns="http://www.w3.org/2000/svg"><g opacity=".5" fill="#fff"><path d="M67.9 25.867h-9.7V8.083h3.233c.893 0 1.617-.724 1.617-1.616v-4.85C63.05.724 62.326 0 61.433 0H35.567c-.893 0-1.617.724-1.617 1.617v4.85c0 .892.724 1.616 1.617 1.616H38.8v17.784h-9.7a8.093 8.093 0 00-8.083 8.083v50.117A8.093 8.093 0 0029.1 92.15v3.233c0 .893.724 1.617 1.617 1.617h6.466c.893 0 1.617-.724 1.617-1.617V92.15h19.4v3.233c0 .893.724 1.617 1.617 1.617h6.466c.893 0 1.617-.724 1.617-1.617V92.15a8.093 8.093 0 008.083-8.083V33.95a8.093 8.093 0 00-8.083-8.083zM37.183 3.233h22.634V4.85H37.183V3.233zm4.85 4.85h12.934v17.784H42.033V8.083zm-6.466 85.684h-3.234V92.15h3.234v1.617zm29.1 0h-3.234V92.15h3.234v1.617zm8.083-9.7a4.85 4.85 0 01-4.85 4.85H29.1a4.85 4.85 0 01-4.85-4.85V33.95a4.85 4.85 0 014.85-4.85h38.8a4.85 4.85 0 014.85 4.85v50.117z"/><path d="M48.5 32.334c-.893 0-1.617.723-1.617 1.616v50.117a1.617 1.617 0 003.234 0V33.95c0-.893-.724-1.617-1.617-1.617zm12.934 3.233c-.893 0-1.617.724-1.617 1.617v43.65a1.617 1.617 0 003.233 0v-43.65c0-.893-.724-1.617-1.616-1.617zm-25.867 0c-.893 0-1.617.724-1.617 1.617v43.65a1.617 1.617 0 003.233 0v-43.65c0-.893-.723-1.617-1.616-1.617z"/></g></svg>
